styles/2/Numix/64/places/red-folder-wine.svg

<?xml version="1.0" encoding="UTF-8" standalone="no"?>
<svg
   xmlns:dc="http://purl.org/dc/elements/1.1/"
   xmlns:cc="http://creativecommons.org/ns#"
   xmlns:rdf="http://www.w3.org/1999/02/22-rdf-syntax-ns#"
   xmlns:svg="http://www.w3.org/2000/svg"
   xmlns="http://www.w3.org/2000/svg"
   xmlns:sodipodi="http://sodipodi.sourceforge.net/DTD/sodipodi-0.dtd"
   xmlns:inkscape="http://www.inkscape.org/namespaces/inkscape"
   width="64"
   height="64"
   viewBox="0 0 64 64"
   id="svg3143"
   version="1.1"
   inkscape:version="0.91 r"
   sodipodi:docname="red-folder-wine.svg">
  <metadata
     id="metadata3163">
    <rdf:RDF>
      <cc:Work
         rdf:about="">
        <dc:format>image/svg+xml</dc:format>
        <dc:type
           rdf:resource="http://purl.org/dc/dcmitype/StillImage" />
      </cc:Work>
    </rdf:RDF>
  </metadata>
  <defs
     id="defs3161" />
  <sodipodi:namedview
     pagecolor="#ffffff"
     bordercolor="#666666"
     borderopacity="1"
     objecttolerance="10"
     gridtolerance="10"
     guidetolerance="10"
     inkscape:pageopacity="0"
     inkscape:pageshadow="2"
     inkscape:window-width="1280"
     inkscape:window-height="998"
     id="namedview3159"
     showgrid="false"
     inkscape:zoom="10.429825"
     inkscape:cx="35.343958"
     inkscape:cy="39.545198"
     inkscape:window-x="0"
     inkscape:window-y="0"
     inkscape:window-maximized="1"
     inkscape:current-layer="svg3143" />
  <path
     style="fill:#ef5350;fill-opacity:1;stroke:none"
     d="M 9,8 C 7.536083,8 6,9.511223 6,11 l 0,1 -3,0 c -1.470099,0 -3,1.49533 -3,3 l 0,38 c 0,2 1,3 3,3 l 58,0 c 1.567614,0 3,-1.358342 3,-3 l 0,-33 c 0,-1.504928 -1.455038,-3 -3,-3 l -3,0 0,-6 C 58,9.538844 56.546781,8 55,8 z"
     id="path6"
     inkscape:connector-curvature="0"
     sodipodi:nodetypes="ssccssssscccsss" />
  <path
     inkscape:connector-curvature="0"
     style="fill:#000000;fill-opacity:0.32156863;stroke:none"
     d="M 9,8 C 7.536083,8 6,9.511223 6,11 l 0,1 -3,0 c -1.470099,0 -3,1.49533 -3,3 l 0,38 c 0,2 1,3 3,3 l 58,0 c 1.567614,0 3,-1.358342 3,-3 l 0,-33 c 0,-1.504928 -1.455038,-3 -3,-3 l -3,0 0,-6 C 58,9.538844 56.546781,8 55,8 L 9,8 z m -6,6 34,0 c 0.590175,0 1,0.51477 1,1 l 0,4 23,0 c 0.505551,0 1,0.508742 1,1 l 0,33 c 0,0.521292 -0.478766,1 -1,1 L 3,54 C 2.535705,54 2,53.603654 2,53 L 2,15 c 0,-0.492405 0.516529,-1 1,-1 z"
     id="path3778" />
  <path
     style="line-height:normal;opacity:1;color:#000000;fill:#000000;fill-opacity:0.32156864000000002"
     id="path3974"
     d="m 41.039627,25.0016 c -1.036385,0.016 -2.055945,0.6534 -2.219114,1.8413 -0.261072,1.901 1.69697,1.1881 3.263403,1.1881 1.566433,0 2.088577,3.089 1.69697,4.7522 -0.391609,1.6634 -4.555157,5.5921 -13.967367,1.6634 C 22.064295,31.212 18.195251,35.5187 18,35.6049 18.733373,42.031 24.712706,49 31.967365,49 39.717375,49 46,41.3218 46,34.2683 c 0,-0.8101 -0.102604,-1.6079 -0.261073,-2.376 -0.144098,-0.3883 -0.285812,-0.7756 -0.391607,-1.1287 -0.189645,-0.6328 -0.403808,-1.1667 -0.587414,-1.6634 -0.0079,-0.016 0.0081,-0.043 0,-0.06 -0.741858,-1.4995 -1.781976,-2.8551 -3.067598,-3.9801 -0.0059,-0.013 -0.02686,0.014 -0.03264,0 -0.200904,-0.047 -0.412769,-0.062 -0.620047,-0.06 z"
     inkscape:connector-curvature="0" />
  <path
     style="line-height:normal;opacity:1;color:#000000;fill:#000000;fill-opacity:0.32156864000000002"
     id="path3976"
     d="M 38,31.0002 C 38,32.1048 37.10457,33 36,33 34.89543,33 34,32.1048 34,31.0002 34,29.8956 34.89543,29 36,29 c 1.10457,0 2,0.8956 2,2.0002 z"
     inkscape:connector-curvature="0" />
  <path
     style="line-height:normal;opacity:1;color:#000000;fill:#000000;fill-opacity:0.32156864000000002"
     id="path3978"
     d="m 32,28 c 0,0.5524 -0.447716,1 -1,1 -0.552284,0 -1,-0.4476 -1,-1 0,-0.5524 0.447716,-1 1,-1 0.552284,0 1,0.4476 1,1 z"
     inkscape:connector-curvature="0" />
</svg>

<svg xmlns="http://www.w3.org/2000/svg" viewBox="0 0 64 64">
 <path d="m 9 8 c -1.464 0 -3 1.511 -3 3 l 0 1 -3 0 c -1.47 0 -3 1.495 -3 3 l 0 38 c 0 2 1 3 3 3 l 58 0 c 1.568 0 3 -1.358 3 -3 l 0 -33 c 0 -1.505 -1.455 -3 -3 -3 l -3 0 0 -6 c 0 -1.461 -1.453 -3 -3 -3 z" style="fill:#ef5350;fill-opacity:1;stroke:none"/>
 <path d="m 9 8 c -1.464 0 -3 1.511 -3 3 l 0 1 -3 0 c -1.47 0 -3 1.495 -3 3 l 0 38 c 0 2 1 3 3 3 l 58 0 c 1.568 0 3 -1.358 3 -3 l 0 -33 c 0 -1.505 -1.455 -3 -3 -3 l -3 0 0 -6 c 0 -1.461 -1.453 -3 -3 -3 l -46 0 z m -6 6 34 0 c 0.59 0 1 0.515 1 1 l 0 4 23 0 c 0.506 0 1 0.509 1 1 l 0 33 c 0 0.521 -0.479 1 -1 1 l -58 0 c -0.464 0 -1 -0.396 -1 -1 l 0 -38 c 0 -0.492 0.517 -1 1 -1 z" style="fill:#000;fill-opacity:0.322;stroke:none"/>
 <path d="m 41.04 25 c -1.036 0.016 -2.056 0.653 -2.219 1.841 -0.261 1.901 1.697 1.188 3.263 1.188 1.566 0 2.089 3.089 1.697 4.752 -0.392 1.663 -4.555 5.592 -13.967 1.663 c -7.749 -3.235 -11.618 1.072 -11.814 1.158 0.733 6.426 6.713 13.395 13.967 13.395 7.75 0 14.03 -7.678 14.03 -14.732 c 0 -0.81 -0.103 -1.608 -0.261 -2.376 -0.144 -0.388 -0.286 -0.776 -0.392 -1.129 -0.19 -0.633 -0.404 -1.167 -0.587 -1.663 -0.008 -0.016 0.008 -0.043 0 -0.06 -0.742 -1.5 -1.782 -2.855 -3.068 -3.98 -0.006 -0.013 -0.027 0.014 -0.033 0 -0.201 -0.047 -0.413 -0.062 -0.62 -0.06 z" style="fill:#000;opacity:1;fill-opacity:0.322;color:#000"/>
 <path d="m 38 31 c 0 1.105 -0.895 2 -2 2 -1.105 0 -2 -0.895 -2 -2 0 -1.105 0.895 -2 2 -2 c 1.105 0 2 0.896 2 2 z" style="fill:#000;opacity:1;fill-opacity:0.322;color:#000"/>
 <path d="m 32 28 c 0 0.552 -0.448 1 -1 1 -0.552 0 -1 -0.448 -1 -1 0 -0.552 0.448 -1 1 -1 0.552 0 1 0.448 1 1 z" style="fill:#000;opacity:1;fill-opacity:0.322;color:#000"/>
</svg>
